symbols/web/atm/materialsymbolsoutlined/atm_wght200gradN25_20px.svg

<svg xmlns="http://www.w3.org/2000/svg" height="20" width="20"><path d="M8.708 12.208V8.542h-1.52v-.75h3.791v.75H9.458v3.666Zm-6.52 0V8.417q0-.271.187-.448t.437-.177h2.355q.271 0 .448.177t.177.448v3.791h-.73v-1.396H2.917v1.396Zm.729-2.125h2.145V8.542H2.917Zm9.375 2.125V8.417q0-.271.177-.448t.427-.177h4.292q.25 0 .447.177.198.177.198.448v3.791h-.75V8.542h-1.645v2.833h-.75V8.542h-1.667v3.666Z"/></svg>

<svg xmlns="http://www.w3.org/2000/svg" height="20" width="20"><path d="M8.708 12.208V8.542H7.188V7.792H10.979V8.542H9.458V12.208ZM2.188 12.208V8.417Q2.188 8.146 2.375 7.969Q2.562 7.792 2.812 7.792H5.167Q5.438 7.792 5.615 7.969Q5.792 8.146 5.792 8.417V12.208H5.062V10.812H2.917V12.208ZM2.917 10.083H5.062V8.542H2.917ZM12.292 12.208V8.417Q12.292 8.146 12.469 7.969Q12.646 7.792 12.896 7.792H17.188Q17.438 7.792 17.635 7.969Q17.833 8.146 17.833 8.417V12.208H17.083V8.542H15.438V11.375H14.688V8.542H13.021V12.208Z"/></svg>
